public/images/cy4.svg

<svg width="100" height="100" viewBox="0 0 100 100" fill="none" xmlns="http://www.w3.org/2000/svg">
<path d="M15.5383 55.8629H1V41.0796H15.5383V55.8629ZM8.84 53.8094C8.84 53.5054 8.84 53.2212 8.84 52.9421C8.83031 52.8071 8.84888 52.6716 8.89449 52.5444C8.9401 52.4173 9.01172 52.3014 9.1046 52.2045C9.7269 51.4469 10.3345 50.6743 10.9421 49.9067C11.1832 49.6382 11.3997 49.3479 11.5889 49.0395H8.84V46.7268H7.37L8.7028 45.052C8.7714 44.9673 8.8596 44.8925 8.8596 44.7729C8.8596 44.2296 8.8596 43.6864 8.8596 43.1431H7.6885C7.6885 43.4471 7.6885 43.7212 7.6885 43.9904C7.70166 44.1318 7.68389 44.2744 7.63644 44.408C7.589 44.5415 7.51307 44.6628 7.4141 44.763C7.0907 45.1318 6.7967 45.5255 6.4929 45.9093L4.92 47.908H7.7081V50.2207H9.1781L7.86 51.8805C7.7865 51.9752 7.6836 52.0549 7.6836 52.1895C7.6836 52.7228 7.6836 53.2611 7.6836 53.8144L8.84 53.8094Z" fill="#FE6633"/>
<path d="M20.11 55.8032V41.1445H20.4726C22.2758 41.1445 24.079 41.1445 25.8626 41.1445C26.927 41.1173 27.9672 41.4699 28.8026 42.1414C30.3608 43.4273 30.7626 46.8764 28.2538 48.2072C28.2232 48.227 28.1937 48.2487 28.1656 48.272C28.5867 48.45 28.9683 48.7125 29.2874 49.044C29.6065 49.3754 29.8566 49.7689 30.0227 50.2009C30.2661 50.7772 30.3724 51.4038 30.3331 52.0297C30.2937 52.6557 30.1097 53.2633 29.796 53.8033C29.4824 54.3434 29.0479 54.8005 28.5279 55.1376C28.0079 55.4747 27.4171 55.6823 26.8034 55.7434C26.4929 55.7817 26.1803 55.8 25.8675 55.7983H20.11V55.8032ZM22.315 53.8095C23.5988 53.8095 24.8728 53.8644 26.1419 53.7747C26.6783 53.7488 27.1834 53.5107 27.5496 53.1112C27.9158 52.7117 28.114 52.1825 28.1019 51.6364C28.1377 51.1048 27.9732 50.5792 27.642 50.1664C27.3107 49.7535 26.8375 49.4843 26.3183 49.4134C25.9661 49.3635 25.6102 49.3469 25.255 49.3636H22.315V53.8095ZM22.315 47.33C23.5449 47.3051 24.765 47.3798 25.9606 47.2901C26.4506 47.2787 26.9186 47.081 27.2723 46.7359C27.626 46.3909 27.8399 45.9235 27.8716 45.426C27.9386 44.9305 27.8171 44.4278 27.5321 44.0202C27.2471 43.6127 26.82 43.3311 26.3379 43.2329C26.0978 43.17 25.8508 43.1382 25.6029 43.1382H22.5894C22.4963 43.1382 22.3983 43.1034 22.3101 43.1731L22.315 47.33Z" fill="#010101"/>
<path d="M70.09 42.6647L68.6984 44.0802C67.8947 43.3406 66.8418 42.9443 65.7584 42.9737C65.3607 42.9272 64.9578 42.9666 64.5761 43.0894C64.1944 43.2123 63.8426 43.4157 63.5436 43.6865C63.2821 43.9253 63.0885 44.2312 62.9832 44.5722C62.8778 44.9132 62.8645 45.2767 62.9446 45.6247C63.0248 45.9728 63.1954 46.2925 63.4387 46.5504C63.682 46.8083 63.989 46.9949 64.3276 47.0907C65.1022 47.286 65.89 47.4226 66.6845 47.4994C67.4578 47.5772 68.2077 47.8128 68.8895 48.1923C70.2223 49.0346 70.6731 50.3305 70.6094 51.8507C70.6123 52.6163 70.3834 53.3643 69.9538 53.993C69.5243 54.6216 68.9148 55.1005 68.2084 55.3646C67.1288 55.8337 65.9563 56.0393 64.7847 55.9648C63.6131 55.8904 62.4748 55.5381 61.4611 54.936C61.0488 54.6863 60.6742 54.3774 60.3488 54.0189L61.8188 52.5236C62.5293 53.2508 63.4594 53.7142 64.4599 53.8394C65.3582 54.0137 66.2859 53.9449 67.15 53.6401C67.574 53.4862 67.934 53.1902 68.1708 52.8008C68.4077 52.4113 68.5073 51.9515 68.4534 51.4968C68.4608 51.0573 68.3116 50.6299 68.0333 50.2936C67.7549 49.9574 67.3663 49.735 66.9393 49.6676C66.1259 49.4533 65.2782 49.4184 64.4501 49.2689C63.4919 49.1522 62.5913 48.742 61.8678 48.0926C61.4226 47.667 61.1107 47.1175 60.9711 46.5126C60.4027 43.9706 61.5542 41.623 64.4452 41.1345C65.917 40.8352 67.4448 41.0385 68.7915 41.7127C69.2637 41.9704 69.7003 42.2905 70.09 42.6647Z" fill="#010101"/>
<path d="M51.47 54.7617V60.0001H49.3973V45.3813H51.4112V46.428C51.8273 45.9206 52.3839 45.5524 53.0086 45.3713C53.8485 45.1528 54.7331 45.191 55.5517 45.481C56.0617 45.6678 56.5128 45.9908 56.8577 46.4162C57.2026 46.8416 57.4285 47.3535 57.5117 47.8984C57.9119 49.6696 57.9119 51.5101 57.5117 53.2814C57.0217 55.4744 55.3704 56.0825 53.528 55.9031C53.1277 55.8612 52.7396 55.7387 52.3863 55.5428C52.0329 55.3468 51.7215 55.0813 51.47 54.7617ZM55.7281 50.5799C55.7281 50.1562 55.6938 49.7276 55.6497 49.3039C55.6214 49.0538 55.5706 48.8069 55.4978 48.5662C55.3776 48.1524 55.1301 47.7887 54.7918 47.5284C54.4534 47.2681 54.042 47.125 53.6178 47.12C53.1936 47.115 52.779 47.2483 52.4348 47.5006C52.0906 47.7528 51.8349 48.1105 51.7052 48.5214C51.3269 49.8904 51.3269 51.3391 51.7052 52.7082C51.9698 53.6452 52.6166 54.0489 53.6652 54.039C54.079 54.0676 54.4892 53.9453 54.8223 53.6941C55.1555 53.443 55.3897 53.0793 55.4831 52.6683C55.6567 51.9868 55.7342 51.2836 55.7134 50.5799H55.7281Z" fill="#010101"/>
<path d="M92.3311 51.1827C92.3948 52.3191 92.6104 53.3558 93.708 53.8243C94.3313 54.1227 95.0331 54.2067 95.7075 54.0638C96.3819 53.9208 96.9924 53.5586 97.4467 53.0318L98.7697 54.2929C98.1772 54.9742 97.4079 55.4718 96.55 55.7283C95.5459 56.0074 94.4884 56.0211 93.4777 55.7682C92.8275 55.6353 92.2247 55.3261 91.7331 54.8734C91.2414 54.4207 90.8792 53.8412 90.6847 53.1963C90.0602 51.4151 90.1074 49.4616 90.817 47.7136C91.145 46.9103 91.7173 46.235 92.4501 45.7865C93.1828 45.3381 94.0375 45.1401 94.8889 45.2215C97.2899 45.3561 98.6423 47.0358 98.9314 49.2438C98.9837 49.8853 99.0033 50.5291 98.9902 51.1727L92.3311 51.1827ZM96.942 49.7173C96.9077 48.6656 96.6186 47.7784 95.668 47.275C95.299 47.0619 94.8757 46.9666 94.4528 47.0012C94.0299 47.0359 93.627 47.199 93.2964 47.4694C92.9631 47.7336 92.6992 48.0776 92.5282 48.4707C92.3572 48.8637 92.2845 49.2937 92.3164 49.7223L96.942 49.7173Z" fill="#010101"/>
<path d="M37.7941 45.376H39.8472C39.9011 45.6302 39.9207 55.2249 39.8472 55.813H37.8627V54.856C37.7206 54.856 37.6716 54.9657 37.5981 55.0305C36.084 56.3513 33.634 56.2217 32.3943 54.7564C31.868 54.1341 31.5808 53.3392 31.5858 52.5184C31.5858 50.1459 31.5858 47.7784 31.5858 45.381H33.6193C33.683 45.4806 33.6487 45.6053 33.6487 45.7199C33.6487 47.697 33.6487 49.6724 33.6487 51.6462C33.644 51.9538 33.6803 52.2606 33.7565 52.5583C33.85 53.0182 34.1086 53.4262 34.4819 53.7026C34.8551 53.9791 35.3162 54.1042 35.7753 54.0536C36.2276 54.0714 36.6718 53.9269 37.03 53.6453C37.3883 53.3638 37.6379 52.9632 37.7353 52.5134C37.7881 52.2781 37.8128 52.0371 37.8088 51.7957C37.8088 49.802 37.8088 47.7933 37.8088 45.7697L37.7941 45.376Z" fill="#010101"/>
<path d="M77.93 45.3761H80.0027V55.7982H77.9937V54.8013C77.7487 54.9907 77.5527 55.1602 77.342 55.2998C75.6613 56.4362 73.2505 55.9876 72.2362 54.3478C71.8406 53.6315 71.6537 52.8155 71.6972 51.9952C71.6972 49.842 71.6972 47.6938 71.6972 45.5157C71.6972 45.4658 71.6972 45.411 71.6972 45.3462H73.7405C73.7843 45.4603 73.7962 45.5845 73.7748 45.7051C73.7748 47.6821 73.7748 49.6576 73.7748 51.6313C73.766 51.949 73.8023 52.2663 73.8826 52.5734C73.9913 53.0363 74.2649 53.4419 74.6504 53.7116C75.036 53.9813 75.5061 54.0961 75.97 54.0338C76.4218 54.0315 76.8585 53.8682 77.2041 53.5722C77.5497 53.2762 77.7823 52.8663 77.8614 52.4139C77.9079 52.1877 77.9309 51.9571 77.93 51.726C77.93 49.6227 77.93 47.5094 77.93 45.3761Z" fill="#010101"/>
<path d="M85.8386 46.9763H84.6724V45.3714H85.8288V42.3809H87.9015V45.3714H89.8615V46.9963H87.9407C87.8919 47.1055 87.8765 47.227 87.8966 47.3452C87.8966 49.103 87.8966 50.8591 87.8966 52.6135C87.892 52.8108 87.9085 53.008 87.9456 53.2017C87.9721 53.421 88.0773 53.6227 88.2409 53.768C88.4046 53.9133 88.6152 53.9921 88.8325 53.9892C89.1706 54.0191 89.5185 53.9892 89.8811 53.9892V55.7835C89.31 55.8201 88.7372 55.8201 88.1661 55.7835C87.4965 55.714 86.8798 55.3823 86.4464 54.8586C86.013 54.335 85.7967 53.6603 85.8435 52.9774C85.8435 51.1332 85.8435 49.289 85.8435 47.4449L85.8386 46.9763Z" fill="#010101"/>
<path d="M43.6692 55.793H41.6161V45.3759H43.63V46.4476C44.0442 45.9885 44.5628 45.6398 45.1403 45.4321C45.7178 45.2244 46.3366 45.1641 46.9424 45.2563C47.6454 45.3397 48.2974 45.6713 48.7848 46.1934L47.2168 47.7883C46.947 47.4853 46.5962 47.2688 46.2074 47.1653C45.9063 47.0926 45.5929 47.0907 45.2909 47.1595C44.989 47.2284 44.7064 47.3663 44.4646 47.5627C44.2229 47.7592 44.0282 48.0091 43.8955 48.2934C43.7628 48.5778 43.6954 48.8891 43.6986 49.2039C43.6545 50.43 43.6986 51.6611 43.6986 52.8922C43.6692 53.8542 43.6692 54.8062 43.6692 55.793Z" fill="#010101"/>
<path d="M83.7854 55.7931H81.752V45.376H83.7854V55.7931Z" fill="#010101"/>
<path d="M81.6833 43.2877V41.0996H83.854V43.2927L81.6833 43.2877Z" fill="#010101"/>
<path d="M8.84004 53.8098H7.69344C7.69344 53.2565 7.69344 52.7232 7.69344 52.1849C7.69344 52.0553 7.79634 51.9706 7.86984 51.8759L9.19284 50.2161H7.72284V47.9084H4.92004L6.50764 45.9147C6.81144 45.5309 7.10544 45.1372 7.42884 44.7683C7.52781 44.6681 7.60374 44.5469 7.65119 44.4133C7.69863 44.2798 7.71641 44.1372 7.70324 43.9958C7.70324 43.7266 7.70324 43.4475 7.70324 43.1484H8.84004C8.84004 43.6917 8.84004 44.235 8.84004 44.7783C8.84004 44.8979 8.74694 44.9727 8.68324 45.0574L7.35044 46.7321H8.82044V49.0448H11.5595C11.3703 49.3533 11.1538 49.6436 10.9127 49.9121C10.3051 50.6846 9.69754 51.4522 9.07524 52.2098C8.98825 52.3087 8.92241 52.4249 8.88192 52.551C8.84143 52.6771 8.82717 52.8105 8.84004 52.9425C8.84004 53.2216 8.84004 53.4908 8.84004 53.8098Z" fill="#FEFEFE"/>
</svg>

<svg xmlns="http://www.w3.org/2000/svg" width="100" height="100" fill="none"><path fill="#FE6633" d="M15.538 55.863H1V41.08h14.538zM8.84 53.809v-.867a.97.97 0 0 1 .265-.737c.622-.758 1.23-1.53 1.837-2.298q.363-.405.647-.867H8.84v-2.313H7.37l1.333-1.675c.068-.085.157-.16.157-.28v-1.629H7.689v.847a.98.98 0 0 1-.275.773c-.323.369-.617.763-.921 1.146L4.92 47.908h2.788v2.313h1.47L7.86 51.88c-.074.094-.176.174-.176.309v1.624z"/><path fill="#010101" d="M20.11 55.803V41.145h5.753a4.5 4.5 0 0 1 2.94.996c1.558 1.286 1.96 4.735-.55 6.066a1 1 0 0 0-.087.065c.42.178.802.44 1.121.772.32.331.57.725.736 1.157a4.05 4.05 0 0 1-.227 3.602c-.314.54-.748.998-1.268 1.335s-1.11.544-1.725.605a7 7 0 0 1-.936.055H20.11zm2.205-1.993c1.284 0 2.558.054 3.827-.035a2.04 2.04 0 0 0 1.408-.664c.366-.4.564-.928.552-1.475a2.12 2.12 0 0 0-.46-1.47 2.05 2.05 0 0 0-1.324-.753 5.7 5.7 0 0 0-1.063-.05h-2.94zm0-6.48c1.23-.025 2.45.05 3.646-.04.49-.011.958-.209 1.311-.554.354-.345.568-.812.6-1.31a2 2 0 0 0-.34-1.406 1.93 1.93 0 0 0-1.194-.787 3 3 0 0 0-.735-.095h-3.014c-.093 0-.19-.035-.279.035zM70.09 42.665l-1.392 1.415a4.17 4.17 0 0 0-2.94-1.106 2.8 2.8 0 0 0-2.214.713 2 2 0 0 0-.56.885 2.03 2.03 0 0 0 .455 1.978c.243.258.55.445.889.54.774.196 1.562.333 2.356.41a5.7 5.7 0 0 1 2.206.692c1.332.843 1.783 2.139 1.72 3.659a3.77 3.77 0 0 1-.656 2.142 3.68 3.68 0 0 1-1.746 1.372 7.4 7.4 0 0 1-6.747-.429 5 5 0 0 1-1.112-.917l1.47-1.495c.71.727 1.64 1.19 2.64 1.315a5.14 5.14 0 0 0 2.691-.199c.424-.154.784-.45 1.02-.84.238-.389.337-.848.283-1.303a1.84 1.84 0 0 0-.42-1.203 1.78 1.78 0 0 0-1.094-.626c-.813-.215-1.66-.25-2.489-.4a4.7 4.7 0 0 1-2.582-1.175 3.17 3.17 0 0 1-.897-1.58c-.568-2.542.583-4.89 3.474-5.378 1.472-.3 3-.096 4.347.578a6 6 0 0 1 1.298.952M51.47 54.762V60h-2.073V45.381h2.014v1.047a3.23 3.23 0 0 1 1.598-1.057 4.34 4.34 0 0 1 2.543.11c.51.187.96.51 1.306.935.345.426.57.938.654 1.482.4 1.772.4 3.612 0 5.383-.49 2.193-2.142 2.802-3.984 2.622a3 3 0 0 1-1.142-.36 3.05 3.05 0 0 1-.916-.781m4.258-4.182c0-.424-.034-.852-.078-1.276a4 4 0 0 0-.152-.738 2.02 2.02 0 0 0-.706-1.038 1.96 1.96 0 0 0-2.357-.027c-.344.252-.6.61-.73 1.02a7.87 7.87 0 0 0 0 4.187c.265.937.912 1.34 1.96 1.331.414.029.824-.094 1.157-.345s.568-.615.661-1.026a7.6 7.6 0 0 0 .23-2.088zM92.331 51.183c.064 1.136.28 2.173 1.377 2.641a3.13 3.13 0 0 0 2 .24 3.17 3.17 0 0 0 1.739-1.032l1.323 1.26a4.74 4.74 0 0 1-2.22 1.436 6 6 0 0 1-3.072.04 3.66 3.66 0 0 1-1.745-.895 3.75 3.75 0 0 1-1.048-1.677 7.76 7.76 0 0 1 .132-5.482c.328-.804.9-1.479 1.633-1.928a3.95 3.95 0 0 1 2.439-.565c2.4.135 3.753 1.815 4.042 4.023q.079.962.06 1.929zm4.611-1.466c-.034-1.051-.323-1.939-1.274-2.442a2.09 2.09 0 0 0-2.372.194 2.6 2.6 0 0 0-.768 1.002 2.65 2.65 0 0 0-.212 1.251zM37.794 45.376h2.053c.054.254.074 9.849 0 10.437h-1.984v-.957c-.142 0-.191.11-.265.175-1.514 1.32-3.964 1.19-5.204-.275a3.43 3.43 0 0 1-.808-2.238v-7.137h2.033c.064.1.03.224.03.339v5.926c-.005.308.031.615.108.912.093.46.352.868.725 1.145.373.276.834.401 1.293.35.453.018.897-.126 1.255-.408s.608-.682.705-1.132q.08-.354.074-.717V45.77zM77.93 45.376h2.073v10.422h-2.01v-.997c-.244.19-.44.36-.651.499-1.68 1.136-4.091.688-5.106-.952a4.4 4.4 0 0 1-.539-2.353v-6.649h2.043a.7.7 0 0 1 .035.36v5.925c-.009.318.027.635.108.942.108.463.382.869.767 1.139.386.27.856.384 1.32.322a1.9 1.9 0 0 0 1.234-.462c.346-.296.578-.706.657-1.158q.07-.34.069-.688zM85.839 46.976h-1.167v-1.605h1.157v-2.99h2.073v2.99h1.96v1.625H87.94a.6.6 0 0 0-.044.35v5.268q-.008.296.049.588c.026.219.131.42.295.566a.87.87 0 0 0 .591.221c.339.03.687 0 1.05 0v1.794q-.859.056-1.716 0a2.58 2.58 0 0 1-1.72-.924 2.67 2.67 0 0 1-.602-1.882v-5.532zM43.67 55.793h-2.054V45.376h2.014v1.072a3.74 3.74 0 0 1 1.51-1.016 3.7 3.7 0 0 1 1.802-.176 3 3 0 0 1 1.843.937l-1.568 1.595c-.27-.303-.62-.52-1.01-.623a2 2 0 0 0-1.742.398 2.1 2.1 0 0 0-.57.73c-.132.285-.2.596-.196.91-.044 1.227 0 2.458 0 3.69-.03.961-.03 1.913-.03 2.9M83.785 55.793h-2.033V45.376h2.033zM81.683 43.288V41.1h2.171v2.193z"/><path fill="#FEFEFE" d="M8.84 53.81H7.693v-1.625c0-.13.103-.214.177-.31l1.323-1.659h-1.47v-2.308H4.92l1.588-1.993c.303-.384.597-.778.92-1.147a.96.96 0 0 0 .275-.772v-.848H8.84v1.63c0 .12-.093.195-.157.28L7.35 46.731h1.47v2.313h2.74q-.285.463-.647.867c-.608.773-1.215 1.54-1.838 2.298a.96.96 0 0 0-.235.733z"/></svg>
